Obsidian-SemiLight/actions/24s/draw-connector.svg

<svg viewBox="0 0 24 24" xmlns="http://www.w3.org/2000/svg"><path d="m17 6.3125-10.6875 10.6875h.6875v.6875l10.6875-10.6875h-.6875z" fill="#4d4d4d"/><path d="m16 4v4h4v-4zm1 1h2v2h-2zm-13 11v4h4v-4zm1 1h2v2h-2z" fill="#3daee9"/></svg>

<svg xmlns="http://www.w3.org/2000/svg" viewBox="0 0 24 24">
  <defs id="defs3051">
    <style type="text/css" id="current-color-scheme">
      .ColorScheme-Text {
        color:#4d4d4d;
      }
      .ColorScheme-Highlight {
        color:#3daee9;
      }
      </style>
  </defs>
 <path 
     style="fill:currentColor;fill-opacity:1;stroke:none" 
     d="M 17 6.3125 L 6.3125 17 L 7 17 L 7 17.6875 L 17.6875 7 L 17 7 L 17 6.3125 z "
     class="ColorScheme-Text"
     />
 <path 
     style="fill:currentColor;fill-opacity:1;stroke:none" 
     d="M 16 4 L 16 8 L 20 8 L 20 4 L 16 4 z M 17 5 L 19 5 L 19 7 L 17 7 L 17 5 z M 4 16 L 4 20 L 8 20 L 8 16 L 4 16 z M 5 17 L 7 17 L 7 19 L 5 19 L 5 17 z "
     class="ColorScheme-Highlight"
     />
</svg>
